Newaita-dark/actions/24/call-stop.svg

<svg xmlns="http://www.w3.org/2000/svg" xmlns:xlink="http://www.w3.org/1999/xlink" width="24px" height="24px" viewBox="0 0 24 24" version="1.1">
<g id="surface1">
<path style=" stroke:none;fill-rule:nonzero;fill:rgb(95.686275%,26.274511%,21.176471%);fill-opacity:0.986348;" d="M 2.480469 13.085938 L 7.441406 13.085938 C 7.988281 13.085938 8.433594 13.53125 8.433594 14.078125 L 8.433594 15.070312 C 8.433594 15.621094 7.988281 16.0625 7.441406 16.0625 L 2.480469 16.0625 C 1.933594 16.0625 1.488281 15.621094 1.488281 15.070312 L 1.488281 14.078125 C 1.488281 13.53125 1.933594 13.085938 2.480469 13.085938 Z M 2.480469 13.085938 "/>
<path style=" stroke:none;fill-rule:nonzero;fill:rgb(95.686275%,26.274511%,21.176471%);fill-opacity:1;" d="M 11.90625 8.125 C 9.921875 8.125 2.480469 8.125 2.480469 12.589844 L 7.441406 12.589844 C 7.441406 11.101562 9.921875 10.109375 11.90625 10.109375 C 13.890625 10.109375 16.371094 11.101562 16.371094 12.589844 L 21.335938 12.589844 C 21.335938 8.125 13.890625 8.125 11.90625 8.125 Z M 11.90625 8.125 "/>
<path style=" stroke:none;fill-rule:nonzero;fill:rgb(95.686275%,26.274511%,21.176471%);fill-opacity:0.986348;" d="M 21.335938 13.085938 L 16.371094 13.085938 C 15.824219 13.085938 15.378906 13.53125 15.378906 14.078125 L 15.378906 15.070312 C 15.378906 15.621094 15.824219 16.0625 16.371094 16.0625 L 21.335938 16.0625 C 21.882812 16.0625 22.328125 15.621094 22.328125 15.070312 L 22.328125 14.078125 C 22.328125 13.53125 21.882812 13.085938 21.335938 13.085938 Z M 21.335938 13.085938 "/>
</g>
</svg>

<svg xmlns="http://www.w3.org/2000/svg" width="32" height="32" viewBox="0 0 24 24"><g fill="#ef5350"><path d="M2.48 13.086h4.961c.547 0 .993.445.993.992v.992c0 .551-.446.992-.993.992h-4.96a.991.991 0 0 1-.993-.992v-.992c0-.547.446-.992.992-.992zm0 0" fill-opacity=".986"/><path d="M11.906 8.125c-1.984 0-9.426 0-9.426 4.465h4.961c0-1.488 2.48-2.48 4.465-2.48 1.985 0 4.465.992 4.465 2.48h4.965c0-4.465-7.445-4.465-9.43-4.465zm0 0"/><path d="M21.336 13.086H16.37a.994.994 0 0 0-.992.992v.992c0 .551.445.992.992.992h4.965a.991.991 0 0 0 .992-.992v-.992a.994.994 0 0 0-.992-.992zm0 0" fill-opacity=".986"/></g></svg>
